images/3235213.svg

<?xml version="1.0" encoding="UTF-8"?>
<svg xmlns="http://www.w3.org/2000/svg" xmlns:xlink="http://www.w3.org/1999/xlink" width="300pt" height="300pt" viewBox="0 0 300 300" version="1.1">
<defs>
<g>
<symbol overflow="visible" id="glyph0-0">
<path style="stroke:none;" d="M 0.453125 1.59375 L 0.453125 -6.34375 L 4.953125 -6.34375 L 4.953125 1.59375 Z M 0.953125 1.09375 L 4.453125 1.09375 L 4.453125 -5.84375 L 0.953125 -5.84375 Z M 0.953125 1.09375 "/>
</symbol>
<symbol overflow="visible" id="glyph0-1">
<path style="stroke:none;" d="M 0.890625 -6.5625 L 2.078125 -6.5625 L 4.984375 -1.078125 L 4.984375 -6.5625 L 5.84375 -6.5625 L 5.84375 0 L 4.65625 0 L 1.75 -5.484375 L 1.75 0 L 0.890625 0 Z M 0.890625 -6.5625 "/>
</symbol>
<symbol overflow="visible" id="glyph0-2">
<path style="stroke:none;" d="M 3.546875 -5.953125 C 2.898438 -5.953125 2.382812 -5.710938 2 -5.234375 C 1.625 -4.753906 1.4375 -4.101562 1.4375 -3.28125 C 1.4375 -2.445312 1.625 -1.789062 2 -1.3125 C 2.382812 -0.832031 2.898438 -0.59375 3.546875 -0.59375 C 4.191406 -0.59375 4.703125 -0.832031 5.078125 -1.3125 C 5.453125 -1.789062 5.640625 -2.445312 5.640625 -3.28125 C 5.640625 -4.101562 5.453125 -4.753906 5.078125 -5.234375 C 4.703125 -5.710938 4.191406 -5.953125 3.546875 -5.953125 Z M 3.546875 -6.6875 C 4.460938 -6.6875 5.195312 -6.375 5.75 -5.75 C 6.300781 -5.132812 6.578125 -4.3125 6.578125 -3.28125 C 6.578125 -2.238281 6.300781 -1.410156 5.75 -0.796875 C 5.195312 -0.179688 4.460938 0.125 3.546875 0.125 C 2.617188 0.125 1.878906 -0.179688 1.328125 -0.796875 C 0.773438 -1.410156 0.5 -2.238281 0.5 -3.28125 C 0.5 -4.3125 0.773438 -5.132812 1.328125 -5.75 C 1.878906 -6.375 2.617188 -6.6875 3.546875 -6.6875 Z M 3.546875 -6.6875 "/>
</symbol>
</g>
</defs>
<g id="surface36213">
<rect x="0" y="0" width="300" height="300" style="fill:rgb(100%,100%,100%);fill-opacity:1;stroke:none;"/>
<path style="fill:none;stroke-width:1.2;stroke-linecap:butt;stroke-linejoin:miter;stroke:rgb(0%,0%,0%);stroke-opacity:1;stroke-miterlimit:10;" d="M 141.570312 165.144531 L 118.5625 168.363281 "/>
<path style="fill:none;stroke-width:1.2;stroke-linecap:butt;stroke-linejoin:miter;stroke:rgb(0%,0%,0%);stroke-opacity:1;stroke-miterlimit:10;" d="M 150.285156 143.609375 L 141.570312 165.144531 "/>
<path style="fill:none;stroke-width:1.2;stroke-linecap:butt;stroke-linejoin:miter;stroke:rgb(0%,0%,0%);stroke-opacity:1;stroke-miterlimit:10;" d="M 118.5625 168.363281 L 111.417969 159.207031 "/>
<path style="fill:none;stroke-width:1.2;stroke-linecap:butt;stroke-linejoin:miter;stroke:rgb(0%,0%,100%);stroke-opacity:1;stroke-miterlimit:10;" d="M 111.417969 159.207031 L 104.269531 150.050781 "/>
<path style="fill:none;stroke-width:1.2;stroke-linecap:butt;stroke-linejoin:miter;stroke:rgb(0%,0%,100%);stroke-opacity:1;stroke-miterlimit:10;" d="M 104.269531 150.050781 L 108.628906 139.28125 "/>
<path style="fill:none;stroke-width:1.2;stroke-linecap:butt;stroke-linejoin:miter;stroke:rgb(0%,0%,0%);stroke-opacity:1;stroke-miterlimit:10;" d="M 108.628906 139.28125 L 112.984375 128.515625 "/>
<path style="fill:none;stroke-width:1.2;stroke-linecap:butt;stroke-linejoin:miter;stroke:rgb(0%,0%,100%);stroke-opacity:1;stroke-miterlimit:10;" d="M 104.269531 150.050781 L 92.765625 151.660156 "/>
<path style="fill:none;stroke-width:1.2;stroke-linecap:butt;stroke-linejoin:miter;stroke:rgb(0%,0%,0%);stroke-opacity:1;stroke-miterlimit:10;" d="M 92.765625 151.660156 L 81.265625 153.269531 "/>
<path style=" stroke:none;fill-rule:nonzero;fill:rgb(100%,100%,100%);fill-opacity:1;" d="M 101.269531 144.550781 L 108.269531 144.550781 L 108.269531 155.550781 L 101.269531 155.550781 Z M 101.269531 144.550781 "/>
<g style="fill:rgb(0%,0%,100%);fill-opacity:1;">
  <use xlink:href="#glyph0-1" x="101.269531" y="153.213867"/>
</g>
<path style="fill:none;stroke-width:1.2;stroke-linecap:butt;stroke-linejoin:miter;stroke:rgb(0%,0%,0%);stroke-opacity:1;stroke-miterlimit:10;" d="M 112.984375 128.515625 L 135.992188 125.292969 "/>
<path style="fill:none;stroke-width:1.2;stroke-linecap:butt;stroke-linejoin:miter;stroke:rgb(0%,0%,0%);stroke-opacity:1;stroke-miterlimit:10;" d="M 135.992188 125.292969 L 150.285156 143.609375 "/>
<path style="fill:none;stroke-width:1.2;stroke-linecap:butt;stroke-linejoin:miter;stroke:rgb(0%,0%,0%);stroke-opacity:1;stroke-miterlimit:10;" d="M 150.285156 143.609375 L 164.578125 161.921875 "/>
<path style="fill:none;stroke-width:1.2;stroke-linecap:butt;stroke-linejoin:miter;stroke:rgb(0%,0%,0%);stroke-opacity:1;stroke-miterlimit:10;" d="M 159 122.074219 L 150.285156 143.609375 "/>
<path style="fill:none;stroke-width:1.2;stroke-linecap:butt;stroke-linejoin:miter;stroke:rgb(0%,0%,0%);stroke-opacity:1;stroke-miterlimit:10;" d="M 164.578125 161.921875 L 187.585938 158.703125 "/>
<path style="fill:none;stroke-width:1.2;stroke-linecap:butt;stroke-linejoin:miter;stroke:rgb(0%,0%,0%);stroke-opacity:1;stroke-miterlimit:10;" d="M 187.585938 158.703125 L 191.941406 147.933594 "/>
<path style="fill:none;stroke-width:1.2;stroke-linecap:butt;stroke-linejoin:miter;stroke:rgb(0%,0%,100%);stroke-opacity:1;stroke-miterlimit:10;" d="M 191.941406 147.933594 L 196.300781 137.167969 "/>
<path style="fill:none;stroke-width:1.2;stroke-linecap:butt;stroke-linejoin:miter;stroke:rgb(0%,0%,100%);stroke-opacity:1;stroke-miterlimit:10;" d="M 196.300781 137.167969 L 189.152344 128.007812 "/>
<path style="fill:none;stroke-width:1.2;stroke-linecap:butt;stroke-linejoin:miter;stroke:rgb(0%,0%,0%);stroke-opacity:1;stroke-miterlimit:10;" d="M 189.152344 128.007812 L 182.007812 118.851562 "/>
<path style="fill:none;stroke-width:1.2;stroke-linecap:butt;stroke-linejoin:miter;stroke:rgb(0%,0%,100%);stroke-opacity:1;stroke-miterlimit:10;" d="M 196.300781 137.167969 L 207.800781 135.554688 "/>
<path style="fill:none;stroke-width:1.2;stroke-linecap:butt;stroke-linejoin:miter;stroke:rgb(0%,0%,0%);stroke-opacity:1;stroke-miterlimit:10;" d="M 207.800781 135.554688 L 219.304688 133.945312 "/>
<path style=" stroke:none;fill-rule:nonzero;fill:rgb(100%,100%,100%);fill-opacity:1;" d="M 193.300781 131.667969 L 200.300781 131.667969 L 200.300781 142.667969 L 193.300781 142.667969 Z M 193.300781 131.667969 "/>
<g style="fill:rgb(0%,0%,100%);fill-opacity:1;">
  <use xlink:href="#glyph0-1" x="193.300781" y="140.331055"/>
</g>
<path style="fill:none;stroke-width:1.2;stroke-linecap:butt;stroke-linejoin:miter;stroke:rgb(0%,0%,0%);stroke-opacity:1;stroke-miterlimit:10;" d="M 182.007812 118.851562 L 159 122.074219 "/>
<path style="fill:none;stroke-width:1.2;stroke-linecap:butt;stroke-linejoin:miter;stroke:rgb(0%,0%,0%);stroke-opacity:1;stroke-miterlimit:10;" d="M 221.839844 134.972656 L 226.195312 124.203125 "/>
<path style="fill:none;stroke-width:1.2;stroke-linecap:butt;stroke-linejoin:miter;stroke:rgb(100%,0%,0%);stroke-opacity:1;stroke-miterlimit:10;" d="M 226.195312 124.203125 L 230.554688 113.4375 "/>
<path style="fill:none;stroke-width:1.2;stroke-linecap:butt;stroke-linejoin:miter;stroke:rgb(0%,0%,0%);stroke-opacity:1;stroke-miterlimit:10;" d="M 216.773438 132.921875 L 221.128906 122.152344 "/>
<path style="fill:none;stroke-width:1.2;stroke-linecap:butt;stroke-linejoin:miter;stroke:rgb(100%,0%,0%);stroke-opacity:1;stroke-miterlimit:10;" d="M 221.128906 122.152344 L 225.488281 111.386719 "/>
<path style="fill:none;stroke-width:1.2;stroke-linecap:butt;stroke-linejoin:miter;stroke:rgb(0%,0%,0%);stroke-opacity:1;stroke-miterlimit:10;" d="M 219.304688 133.945312 L 233.597656 152.261719 "/>
<path style=" stroke:none;fill-rule:nonzero;fill:rgb(100%,100%,100%);fill-opacity:1;" d="M 224.019531 106.910156 L 232.019531 106.910156 L 232.019531 117.910156 L 224.019531 117.910156 Z M 224.019531 106.910156 "/>
<g style="fill:rgb(100%,0%,0%);fill-opacity:1;">
  <use xlink:href="#glyph0-2" x="224.019531" y="115.573242"/>
</g>
<path style="fill:none;stroke-width:1.2;stroke-linecap:butt;stroke-linejoin:miter;stroke:rgb(0%,0%,0%);stroke-opacity:1;stroke-miterlimit:10;" d="M 233.597656 152.261719 L 256.816406 151.460938 "/>
<path style="fill:none;stroke-width:1.2;stroke-linecap:butt;stroke-linejoin:miter;stroke:rgb(0%,0%,0%);stroke-opacity:1;stroke-miterlimit:10;" d="M 236.109375 157.644531 L 254.683594 157.003906 "/>
<path style="fill:none;stroke-width:1.2;stroke-linecap:butt;stroke-linejoin:miter;stroke:rgb(100%,0%,0%);stroke-opacity:1;stroke-miterlimit:10;" d="M 227.183594 174.589844 L 230.390625 163.425781 "/>
<path style="fill:none;stroke-width:1.2;stroke-linecap:butt;stroke-linejoin:miter;stroke:rgb(0%,0%,0%);stroke-opacity:1;stroke-miterlimit:10;" d="M 230.390625 163.425781 L 233.597656 152.261719 "/>
<path style="fill:none;stroke-width:1.2;stroke-linecap:butt;stroke-linejoin:miter;stroke:rgb(0%,0%,0%);stroke-opacity:1;stroke-miterlimit:10;" d="M 256.816406 151.460938 L 264.75 173.296875 "/>
<path style="fill:none;stroke-width:1.2;stroke-linecap:butt;stroke-linejoin:miter;stroke:rgb(0%,0%,0%);stroke-opacity:1;stroke-miterlimit:10;" d="M 264.75 173.296875 L 246.4375 187.589844 "/>
<path style="fill:none;stroke-width:1.2;stroke-linecap:butt;stroke-linejoin:miter;stroke:rgb(0%,0%,0%);stroke-opacity:1;stroke-miterlimit:10;" d="M 259.554688 170.417969 L 244.902344 181.851562 "/>
<path style="fill:none;stroke-width:1.2;stroke-linecap:butt;stroke-linejoin:miter;stroke:rgb(0%,0%,0%);stroke-opacity:1;stroke-miterlimit:10;" d="M 246.4375 187.589844 L 236.808594 181.089844 "/>
<path style="fill:none;stroke-width:1.2;stroke-linecap:butt;stroke-linejoin:miter;stroke:rgb(100%,0%,0%);stroke-opacity:1;stroke-miterlimit:10;" d="M 236.808594 181.089844 L 227.183594 174.589844 "/>
<path style=" stroke:none;fill-rule:nonzero;fill:rgb(100%,100%,100%);fill-opacity:1;" d="M 223.183594 169.089844 L 231.183594 169.089844 L 231.183594 180.089844 L 223.183594 180.089844 Z M 223.183594 169.089844 "/>
<g style="fill:rgb(100%,0%,0%);fill-opacity:1;">
  <use xlink:href="#glyph0-2" x="223.183594" y="177.75293"/>
</g>
<path style="fill:none;stroke-width:1.2;stroke-linecap:butt;stroke-linejoin:miter;stroke:rgb(0%,0%,0%);stroke-opacity:1;stroke-miterlimit:10;" d="M 81.265625 153.269531 L 74.117188 144.113281 "/>
<path style="fill:none;stroke-width:1.2;stroke-linecap:butt;stroke-linejoin:miter;stroke:rgb(0%,0%,100%);stroke-opacity:1;stroke-miterlimit:10;" d="M 74.117188 144.113281 L 66.972656 134.957031 "/>
<path style="fill:none;stroke-width:1.2;stroke-linecap:butt;stroke-linejoin:miter;stroke:rgb(0%,0%,0%);stroke-opacity:1;stroke-miterlimit:10;" d="M 75.527344 154.800781 L 69.808594 147.476562 "/>
<path style="fill:none;stroke-width:1.2;stroke-linecap:butt;stroke-linejoin:miter;stroke:rgb(0%,0%,100%);stroke-opacity:1;stroke-miterlimit:10;" d="M 69.808594 147.476562 L 64.089844 140.148438 "/>
<path style="fill:none;stroke-width:1.2;stroke-linecap:butt;stroke-linejoin:miter;stroke:rgb(0%,0%,100%);stroke-opacity:1;stroke-miterlimit:10;" d="M 72.550781 174.804688 L 76.90625 164.039062 "/>
<path style="fill:none;stroke-width:1.2;stroke-linecap:butt;stroke-linejoin:miter;stroke:rgb(0%,0%,0%);stroke-opacity:1;stroke-miterlimit:10;" d="M 76.90625 164.039062 L 81.265625 153.269531 "/>
<path style="fill:none;stroke-width:1.2;stroke-linecap:butt;stroke-linejoin:miter;stroke:rgb(0%,0%,100%);stroke-opacity:1;stroke-miterlimit:10;" d="M 66.972656 134.957031 L 55.46875 136.566406 "/>
<path style="fill:none;stroke-width:1.2;stroke-linecap:butt;stroke-linejoin:miter;stroke:rgb(0%,0%,0%);stroke-opacity:1;stroke-miterlimit:10;" d="M 55.46875 136.566406 L 43.964844 138.175781 "/>
<path style=" stroke:none;fill-rule:nonzero;fill:rgb(100%,100%,100%);fill-opacity:1;" d="M 63.972656 129.457031 L 70.972656 129.457031 L 70.972656 140.457031 L 63.972656 140.457031 Z M 63.972656 129.457031 "/>
<g style="fill:rgb(0%,0%,100%);fill-opacity:1;">
  <use xlink:href="#glyph0-1" x="63.972656" y="138.120117"/>
</g>
<path style="fill:none;stroke-width:1.2;stroke-linecap:butt;stroke-linejoin:miter;stroke:rgb(0%,0%,0%);stroke-opacity:1;stroke-miterlimit:10;" d="M 43.964844 138.175781 L 35.25 159.710938 "/>
<path style="fill:none;stroke-width:1.2;stroke-linecap:butt;stroke-linejoin:miter;stroke:rgb(0%,0%,0%);stroke-opacity:1;stroke-miterlimit:10;" d="M 48.160156 142.378906 L 41.1875 159.609375 "/>
<path style="fill:none;stroke-width:1.2;stroke-linecap:butt;stroke-linejoin:miter;stroke:rgb(0%,0%,0%);stroke-opacity:1;stroke-miterlimit:10;" d="M 35.25 159.710938 L 49.542969 178.027344 "/>
<path style="fill:none;stroke-width:1.2;stroke-linecap:butt;stroke-linejoin:miter;stroke:rgb(0%,0%,0%);stroke-opacity:1;stroke-miterlimit:10;" d="M 49.542969 178.027344 L 61.046875 176.414062 "/>
<path style="fill:none;stroke-width:1.2;stroke-linecap:butt;stroke-linejoin:miter;stroke:rgb(0%,0%,100%);stroke-opacity:1;stroke-miterlimit:10;" d="M 61.046875 176.414062 L 72.550781 174.804688 "/>
<path style="fill:none;stroke-width:1.2;stroke-linecap:butt;stroke-linejoin:miter;stroke:rgb(0%,0%,0%);stroke-opacity:1;stroke-miterlimit:10;" d="M 51.085938 172.289062 L 60.289062 171 "/>
<path style="fill:none;stroke-width:1.2;stroke-linecap:butt;stroke-linejoin:miter;stroke:rgb(0%,0%,100%);stroke-opacity:1;stroke-miterlimit:10;" d="M 60.289062 171 L 69.492188 169.714844 "/>
<path style=" stroke:none;fill-rule:nonzero;fill:rgb(100%,100%,100%);fill-opacity:1;" d="M 69.550781 169.304688 L 76.550781 169.304688 L 76.550781 180.304688 L 69.550781 180.304688 Z M 69.550781 169.304688 "/>
<g style="fill:rgb(0%,0%,100%);fill-opacity:1;">
  <use xlink:href="#glyph0-1" x="69.550781" y="177.967773"/>
</g>
</g>
</svg>

<svg xmlns="http://www.w3.org/2000/svg" xmlns:xlink="http://www.w3.org/1999/xlink" width="300pt" height="300pt" viewBox="0 0 300 300"><defs><symbol overflow="visible"><path d="M.453 1.594v-7.938h4.5v7.938zm.5-.5h3.5v-6.938h-3.5zm0 0"/></symbol><symbol overflow="visible" id="a"><path d="M.89-6.563H2.08l2.906 5.485v-5.484h.86V0H4.656L1.75-5.484V0H.89zm0 0"/></symbol><symbol overflow="visible" id="b"><path d="M3.547-5.953c-.65 0-1.164.242-1.547.72-.375.48-.563 1.13-.563 1.952 0 .835.188 1.49.563 1.967.383.48.898.72 1.547.72.644 0 1.156-.24 1.53-.72.376-.476.564-1.132.564-1.968 0-.822-.187-1.474-.562-1.954-.375-.477-.887-.72-1.53-.72zm0-.734c.914 0 1.648.312 2.203.937.55.617.828 1.438.828 2.47 0 1.042-.277 1.87-.828 2.483-.555.617-1.29.922-2.203.922-.93 0-1.668-.305-2.22-.922C.774-1.41.5-2.237.5-3.28c0-1.033.273-1.853.828-2.47.55-.625 1.29-.938 2.22-.938zm0 0"/></symbol></defs><g><path fill="#fff" d="M0 0h300v300H0z"/><path d="M141.57 165.145l-23.007 3.218M150.285 143.61l-8.715 21.535M118.563 168.363l-7.145-9.156" stroke-width="1.2" stroke="#000" stroke-miterlimit="10" fill="none"/><path d="M111.418 159.207l-7.148-9.156M104.27 150.05l4.36-10.77" stroke-width="1.2" stroke="#00f" stroke-miterlimit="10" fill="none"/><path d="M108.63 139.28l4.354-10.764" stroke-width="1.2" stroke="#000" stroke-miterlimit="10" fill="none"/><path d="M104.27 150.05l-11.504 1.61" stroke-width="1.2" stroke="#00f" stroke-miterlimit="10" fill="none"/><path d="M92.766 151.66l-11.5 1.61" stroke-width="1.2" stroke="#000" stroke-miterlimit="10" fill="none"/><path d="M101.27 144.55h7v11h-7zm0 0" fill="#fff"/><use xlink:href="#a" x="101.27" y="153.214" fill="#00f"/><path d="M112.984 128.516l23.008-3.223M135.992 125.293l14.293 18.316M150.285 143.61l14.293 18.312M159 122.074l-8.715 21.535M164.578 161.922l23.008-3.22M187.586 158.703l4.355-10.77" stroke-width="1.2" stroke="#000" stroke-miterlimit="10" fill="none"/><path d="M191.94 147.934l4.36-10.766M196.3 137.168l-7.148-9.16" stroke-width="1.2" stroke="#00f" stroke-miterlimit="10" fill="none"/><path d="M189.152 128.008l-7.144-9.156" stroke-width="1.2" stroke="#000" stroke-miterlimit="10" fill="none"/><path d="M196.3 137.168l11.5-1.613" stroke-width="1.2" stroke="#00f" stroke-miterlimit="10" fill="none"/><path d="M207.8 135.555l11.505-1.61" stroke-width="1.2" stroke="#000" stroke-miterlimit="10" fill="none"/><path d="M193.3 131.668h7v11h-7zm0 0" fill="#fff"/><use xlink:href="#a" x="193.301" y="140.331" fill="#00f"/><path d="M182.008 118.852L159 122.074M221.84 134.973l4.355-10.77" stroke-width="1.2" stroke="#000" stroke-miterlimit="10" fill="none"/><path d="M226.195 124.203l4.36-10.766" stroke-width="1.2" stroke="#f00" stroke-miterlimit="10" fill="none"/><path d="M216.773 132.922l4.356-10.77" stroke-width="1.2" stroke="#000" stroke-miterlimit="10" fill="none"/><path d="M221.13 122.152l4.358-10.765" stroke-width="1.2" stroke="#f00" stroke-miterlimit="10" fill="none"/><path d="M219.305 133.945l14.293 18.317" stroke-width="1.2" stroke="#000" stroke-miterlimit="10" fill="none"/><path d="M224.02 106.91h8v11h-8zm0 0" fill="#fff"/><use xlink:href="#b" x="224.02" y="115.573" fill="#f00"/><path d="M233.598 152.262l23.218-.8M236.11 157.645l18.574-.64" stroke-width="1.2" stroke="#000" stroke-miterlimit="10" fill="none"/><path d="M227.184 174.59l3.207-11.164" stroke-width="1.2" stroke="#f00" stroke-miterlimit="10" fill="none"/><path d="M230.39 163.426l3.208-11.164M256.816 151.46l7.934 21.837M264.75 173.297l-18.313 14.293M259.555 170.418l-14.653 11.434M246.438 187.59l-9.63-6.5" stroke-width="1.2" stroke="#000" stroke-miterlimit="10" fill="none"/><path d="M236.81 181.09l-9.626-6.5" stroke-width="1.2" stroke="#f00" stroke-miterlimit="10" fill="none"/><path d="M223.184 169.09h8v11h-8zm0 0" fill="#fff"/><use xlink:href="#b" x="223.184" y="177.753" fill="#f00"/><path d="M81.266 153.27l-7.15-9.157" stroke-width="1.2" stroke="#000" stroke-miterlimit="10" fill="none"/><path d="M74.117 144.113l-7.144-9.156" stroke-width="1.2" stroke="#00f" stroke-miterlimit="10" fill="none"/><path d="M75.527 154.8l-5.718-7.323" stroke-width="1.2" stroke="#000" stroke-miterlimit="10" fill="none"/><path d="M69.81 147.477l-5.72-7.33M72.55 174.805l4.356-10.766" stroke-width="1.2" stroke="#00f" stroke-miterlimit="10" fill="none"/><path d="M76.906 164.04l4.36-10.77" stroke-width="1.2" stroke="#000" stroke-miterlimit="10" fill="none"/><path d="M66.973 134.957l-11.504 1.61" stroke-width="1.2" stroke="#00f" stroke-miterlimit="10" fill="none"/><path d="M55.47 136.566l-11.505 1.61" stroke-width="1.2" stroke="#000" stroke-miterlimit="10" fill="none"/><path d="M63.973 129.457h7v11h-7zm0 0" fill="#fff"/><use xlink:href="#a" x="63.973" y="138.12" fill="#00f"/><path d="M43.965 138.176L35.25 159.71M48.16 142.38l-6.972 17.23M35.25 159.71l14.293 18.317M49.543 178.027l11.504-1.613" stroke-width="1.2" stroke="#000" stroke-miterlimit="10" fill="none"/><path d="M61.047 176.414l11.504-1.61" stroke-width="1.2" stroke="#00f" stroke-miterlimit="10" fill="none"/><path d="M51.086 172.29L60.29 171" stroke-width="1.2" stroke="#000" stroke-miterlimit="10" fill="none"/><path d="M60.29 171l9.202-1.285" stroke-width="1.2" stroke="#00f" stroke-miterlimit="10" fill="none"/><path d="M69.55 169.305h7v11h-7zm0 0" fill="#fff"/><use xlink:href="#a" x="69.551" y="177.968" fill="#00f"/></g></svg>
